X: 3
T: Deck the Halls
M: 4/4
C: English Carol
K: G clef=alto middle=c
L: 1/4
V: 1 name="Melody" snm="" clef=alto middle=c
%%MIDI channel 1
%%MIDI program 40
|: !f!vd>c B A | G A B G | (A/B/) c/A/ B>A | G F G2 | vd>c B A |
G A B G | (A/B/) c/A/ B>A | G F G2 | !mf!A>B c A | B>c d A |
(B/^c/) d e/f/ g | f e d2 | !ff!vd>c B A | G A B G |
e/e/ e/e/ d>c | B A G2 :| ve/e/ e/e/ d>c | B A G2 |]
V: 2 name="Viola" snm="" clef=alto middle=c
%%MIDI channel 1
%%MIDI program 40
L: 1/4
|: !f!vB>d d d | B d d B | d d d>c | B A d2 | vB>d d d |
b d d b | d d d>c | b a d2 | !mf!vd>d d d | d>f g d |
g f B/d/ e | d ^c d2 | !ff!vB>d d d | B d d g |
g/g/ g/g/ g>e | d d d2 :| vc/c/ c/c/ B>a | g f d2 |]

